X: 20770
T: Johnny Leary's
R: polka
M: 2/4
K: Cmajor
|:GE ED|CE EA|GE CE|D2 D2|
GE ED|CE EA|GE DE/D/|C2 C2:|
|:Gc cd|ec cA|Gc ce|d2 d2|
Gc cd|ec cA|GE DE/D/|C2 C2:|

